learning-site/svg (29).svg

<svg xmlns="http://www.w3.org/2000/svg" xmlns:xlink="http://www.w3.org/1999/xlink" viewBox="0 0 100 100" version="1.1"><!-- Generator: Sketch 52.4 (67378) - http://www.bohemiancoding.com/sketch --><title>Get Started with Windows Development/introduction-to-windows-10-development</title><desc>Created with Sketch.</desc><defs><rect id="path-1" x="0" y="0" width="96" height="96" rx="48"></rect><filter x="-5.8%" y="-6.5%" width="111.6%" height="112.9%" filterUnits="objectBoundingBox" id="filter-3"><feOffset dx="0" dy="2" in="SourceAlpha" result="shadowOffsetOuter1"></feOffset><feColorMatrix values="0 0 0 0 0   0 0 0 0 0   0 0 0 0 0  0 0 0 0.1 0" type="matrix" in="shadowOffsetOuter1" result="shadowMatrixOuter1"></feColorMatrix><feMerge><feMergeNode in="shadowMatrixOuter1"></feMergeNode><feMergeNode in="SourceGraphic"></feMergeNode></feMerge></filter><filter x="-14.3%" y="-8.5%" width="128.6%" height="117.0%" filterUnits="objectBoundingBox" id="filter-4"><feOffset dx="0" dy="2" in="SourceAlpha" result="shadowOffsetOuter1"></feOffset><feColorMatrix values="0 0 0 0 0   0 0 0 0 0   0 0 0 0 0  0 0 0 0.1 0" type="matrix" in="shadowOffsetOuter1" result="shadowMatrixOuter1"></feColorMatrix><feMerge><feMergeNode in="shadowMatrixOuter1"></feMergeNode><feMergeNode in="SourceGraphic"></feMergeNode></feMerge></filter><polygon id="path-5" points="0 0.984216975 27.682 0.984216975 27.682 32.6704 0 32.6704"></polygon><polygon id="path-7" points="0 0 14 0 14 31 0 31"></polygon><filter x="-50.0%" y="-23.5%" width="200.0%" height="147.1%" filterUnits="objectBoundingBox" id="filter-9"><feOffset dx="0" dy="2" in="SourceAlpha" result="shadowOffsetOuter1"></feOffset><feColorMatrix values="0 0 0 0 0   0 0 0 0 0   0 0 0 0 0  0 0 0 0.1 0" type="matrix" in="shadowOffsetOuter1" result="shadowMatrixOuter1"></feColorMatrix><feMerge><feMergeNode in="shadowMatrixOuter1"></feMergeNode><feMergeNode in="SourceGraphic"></feMergeNode></feMerge></filter></defs><g id="Badges" stroke="none" stroke-width="1" fill="none" fill-rule="evenodd"><g id="Get-Started-with-Windows-Development" transform="translate(-579.000000, -327.000000)"><g id="Get-Started-with-Windows-Development/introduction-to-windows-10-development" transform="translate(579.000000, 327.000000)"><g id="Mask" transform="translate(2.000000, 2.000000)"><mask id="mask-2" fill="white"><use xlink:href="#path-1"></use></mask><use id="BG" fill="#55A2FF" xlink:href="#path-1"></use><g id="Group-79" mask="url(#mask-2)"><g transform="translate(13.000000, 13.500000)"><g id="Group-74" filter="url(#filter-3)" transform="translate(0.500000, 0.000000)"><g id="Group-5"><path d="M34.3196,53.2299 C23.2736,53.2299 14.3196,44.2759 14.3196,33.2299 C14.3196,22.1839 23.2736,13.2299 34.3196,13.2299 C45.3656,13.2299 54.3196,22.1839 54.3196,33.2299 C54.3196,44.2759 45.3656,53.2299 34.3196,53.2299 M59.9896,28.0439 L56.9376,20.5259 L59.9436,16.8209 C61.2536,15.2069 61.1076,12.8579 59.6096,11.4169 L57.0316,8.9389 C55.5796,7.5419 53.3156,7.4439 51.7486,8.7089 L48.0396,11.6999 L40.5256,8.4039 L40.1156,3.6559 C39.9356,1.5869 38.2056,0.0009 36.1306,0.0009 L32.5786,0.0009 C30.5306,0.0009 28.8126,1.5469 28.5996,3.5839 L28.0966,8.4039 L20.3976,11.6999 L16.6326,8.6949 C15.0556,7.4379 12.7926,7.5489 11.3476,8.9549 L8.8406,11.3949 C7.3466,12.8469 7.2186,15.2029 8.5446,16.8079 L11.6126,20.5259 L8.3676,28.0439 L3.5506,28.5889 C1.5286,28.8179 0.0006,30.5289 0.0006,32.5639 L0.0006,36.5589 C0.0006,38.6159 1.5586,40.3359 3.6046,40.5399 L8.3676,41.0119 L11.6126,48.4879 L8.5296,52.1309 C7.2056,53.6969 7.2796,56.0099 8.7016,57.4889 L11.2716,60.1609 C12.7356,61.6809 15.1296,61.8029 16.7396,60.4389 L21.1716,56.6859 L47.2026,56.6859 L52.0856,60.3069 C53.6856,61.4949 55.9176,61.3229 57.3166,59.9029 L59.7706,57.4119 C61.1916,55.9709 61.3116,53.6969 60.0516,52.1129 L56.9376,48.1999 L59.9896,40.5899 L64.9886,40.1519 C67.0546,39.9699 68.6386,38.2409 68.6386,36.1669 L68.6386,32.5769 C68.6386,30.5359 67.1026,28.8219 65.0736,28.5999 L59.9896,28.0439 Z" id="Fill-1" fill="#546670"></path><path d="M59.9895,28.044 L56.9375,20.526 L59.9435,16.821 C61.2535,15.206 61.1075,12.858 59.6095,11.417 L57.0315,8.939 C55.5795,7.542 53.3155,7.444 51.7485,8.708 L48.0395,11.7 L40.5255,8.404 L40.1155,3.656 C39.9355,1.587 38.2055,-4.12114787e-13 36.1305,-4.12114787e-13 L33.9916992,-4.12114787e-13 L33.9916992,13.23 C45.0376992,13.23 54.3195,22.184 54.3195,33.23 C54.3195,44.276 45.0376992,53.23 33.9916992,53.23 L33.9916992,56.686 L47.2025,56.686 L52.0855,60.307 C53.6855,61.495 55.9175,61.323 57.3165,59.903 L59.7705,57.412 C61.1915,55.971 61.3115,53.697 60.0525,52.113 L56.9375,48.2 L59.9895,40.59 L64.9885,40.152 C67.0545,39.97 68.6385,38.241 68.6385,36.166 L68.6385,32.577 C68.6385,30.536 67.1025,28.822 65.0735,28.6 L59.9895,28.044 Z" id="Fill-3" fill="#30404D"></path></g><g id="Group-67" transform="translate(14.000000, 14.000000)" stroke-width="2"><ellipse id="Oval" stroke="#30404D" fill-rule="nonzero" cx="20.5" cy="19.5" rx="20" ry="19.5"></ellipse><path d="M19.9916992,39 C31.0376992,39 40.5,30.26985 40.5,19.5 C40.5,9.80033137 32.8247729,1.75513992 23.2299221,0.252041443 C22.1713055,0.0862019651 21.0893211,0 19.9916992,0" id="Stroke-1" stroke="#546670"></path></g></g><g id="Group-76" transform="translate(20.500000, 18.000000)"><g id="Group-7" filter="url(#filter-4)" transform="translate(0.500000, 0.000000)"><g id="Group-3" transform="translate(0.000000, 0.015700)"><mask id="mask-6" fill="white"><use xlink:href="#path-5"></use></mask><g id="Clip-2"></g><path d="M20.1748,32.6704 C20.1748,28.1734 22.0768,25.9994 22.8658,25.2914 C23.3918,24.8184 23.9118,24.3464 24.3708,23.8094 C26.7448,21.0294 28.0368,17.2994 27.5978,13.2684 C26.9038,6.9204 21.7638,1.7724 15.4168,1.0714 C7.0678,0.1494 -0.0002,6.6624 -0.0002,14.8254 C-0.0002,18.6574 1.5578,22.1254 4.0728,24.6324 C4.0728,24.6324 7.0778,27.4154 7.0778,32.6704" id="Fill-1" fill="#FCD116" mask="url(#mask-6)"></path></g><polygon id="Fill-4" fill="#E1E4E1" points="4 39 23 39 23 32 4 32"></polygon><polyline id="Path" fill="#B5B5B5" points="22 39 22 44.5125285 13.9994355 47 6 44.5125285 6 39"></polyline><polyline id="Path" fill="#696969" points="21.9971924 39 21.9971924 44.5033569 14 47 14 39"></polyline><path d="M4,38.0541992 L13.0523081,38.0541992 C13.6045929,38.0541992 14.0523081,37.606484 14.0523081,37.0541992 C14.0523081,37.050746 14.0522902,37.0472928 14.0522545,37.0438397 L14,32 L23.1333008,32 L23.1333008,39.0517578 L4,39.0517578 L4,38.0541992 Z" id="Path-35" fill="#C5CCCD" fill-rule="nonzero"></path></g><g id="Group-65" transform="translate(14.500000, 1.000000)"><g id="Group-3"><mask id="mask-8" fill="white"><use xlink:href="#path-7"></use></mask><g id="Clip-2"></g><path d="M1.5940847,0.0841407606 C8.01391695,0.769985798 13.2139103,5.80669086 13.913851,12.0174531 C14.3589,15.9603282 13.0510628,19.6106675 10.6508324,22.3295881 C10.1865654,22.8549787 9.66059836,23.3187313 9.12856247,23.7795487 C8.33050865,24.4722424 6.40668307,26.6002209 6.40668307,31 L0,31 L0,0 C0.525967035,0 1.05699144,0.0264162853 1.5940847,0.0841407606 Z" id="Fill-1" fill="#FDBD0F" mask="url(#mask-8)"></path></g></g><path d="M7.5,30.1337891 L12.5627219,30.1337891 C13.6672914,30.1337891 14.5627219,29.2383586 14.5627219,28.1337891 L14.5627219,28 L15.5,28 L15.5,32 L7.5,32 L7.5,30.1337891 Z" id="Path-36" fill="#FDBD0F" fill-rule="nonzero"></path><g id="Lightning" filter="url(#filter-9)" transform="translate(10.500000, 9.000000)" fill="#FFFFFF"><polygon id="Fill-409" points="8 0 1.86666667 0 0 9.09749818 2.96305385 9.09749818 2.96305385 17 7.73333333 6.62904979 5.33333333 6.62904979"></polygon></g></g></g></g></g><g id="Azure-Border" stroke="#0078D4" stroke-width="4"><rect x="2" y="2" width="96" height="96" rx="48"></rect></g></g></g></g></svg>

<svg xmlns="http://www.w3.org/2000/svg" xmlns:xlink="http://www.w3.org/1999/xlink" viewBox="0 0 100 100"><defs><rect id="a" x="0" y="0" width="96" height="96" rx="48"/><filter x="-5.8%" y="-6.5%" width="111.6%" height="112.9%" filterUnits="objectBoundingBox" id="c"><feOffset dy="2" in="SourceAlpha" result="shadowOffsetOuter1"/><feColorMatrix values="0 0 0 0 0 0 0 0 0 0 0 0 0 0 0 0 0 0 0.1 0" in="shadowOffsetOuter1" result="shadowMatrixOuter1"/><feMerge><feMergeNode in="shadowMatrixOuter1"/><feMergeNode in="SourceGraphic"/></feMerge></filter><filter x="-14.3%" y="-8.5%" width="128.6%" height="117%" filterUnits="objectBoundingBox" id="d"><feOffset dy="2" in="SourceAlpha" result="shadowOffsetOuter1"/><feColorMatrix values="0 0 0 0 0 0 0 0 0 0 0 0 0 0 0 0 0 0 0.1 0" in="shadowOffsetOuter1" result="shadowMatrixOuter1"/><feMerge><feMergeNode in="shadowMatrixOuter1"/><feMergeNode in="SourceGraphic"/></feMerge></filter><path id="e" d="M0 .984h27.682V32.67H0z"/><path id="g" d="M0 0h14v31H0z"/><filter x="-50%" y="-23.5%" width="200%" height="147.1%" filterUnits="objectBoundingBox" id="i"><feOffset dy="2" in="SourceAlpha" result="shadowOffsetOuter1"/><feColorMatrix values="0 0 0 0 0 0 0 0 0 0 0 0 0 0 0 0 0 0 0.1 0" in="shadowOffsetOuter1" result="shadowMatrixOuter1"/><feMerge><feMergeNode in="shadowMatrixOuter1"/><feMergeNode in="SourceGraphic"/></feMerge></filter></defs><g fill="none" fill-rule="evenodd"><g transform="translate(2 2)"><mask id="b" fill="#fff"><use xlink:href="#a"/></mask><use fill="#55A2FF" xlink:href="#a"/><g mask="url(#b)"><g filter="url(#c)" transform="translate(13.5 13.5)"><path d="M34.32 53.23c-11.046 0-20-8.954-20-20s8.954-20 20-20 20 8.954 20 20-8.954 20-20 20m25.67-25.186l-3.052-7.518 3.006-3.705a4 4 0 0 0-.334-5.404l-2.578-2.478a3.998 3.998 0 0 0-5.283-.23l-3.71 2.99-7.513-3.295-.41-4.748A4 4 0 0 0 36.13 0h-3.552a4 4 0 0 0-3.98 3.583l-.502 4.82-7.7 3.296-3.764-3.005a4 4 0 0 0-5.285.26l-2.507 2.44a3.998 3.998 0 0 0-.296 5.413l3.068 3.718-3.245 7.518-4.817.545A4 4 0 0 0 0 32.564v3.995a4 4 0 0 0 3.604 3.98l4.763.473 3.245 7.476L8.53 52.13a4.002 4.002 0 0 0 .172 5.358l2.57 2.672a4.002 4.002 0 0 0 5.468.278l4.432-3.753h26.03l4.884 3.62a3.998 3.998 0 0 0 5.23-.403l2.455-2.491a4 4 0 0 0 .28-5.3L56.939 48.2l3.052-7.61 4.999-.438a4 4 0 0 0 3.65-3.985v-3.59a4 4 0 0 0-3.565-3.977l-5.084-.556z" fill="#546670"/><path d="M59.99 28.044l-3.053-7.518 3.007-3.705a4 4 0 0 0-.335-5.404l-2.578-2.478a3.999 3.999 0 0 0-5.282-.231l-3.71 2.992-7.514-3.296-.41-4.748A4 4 0 0 0 36.13 0h-2.138v13.23c11.046 0 20.328 8.954 20.328 20s-9.282 20-20.328 20v3.456h13.21l4.884 3.621a3.998 3.998 0 0 0 5.23-.404l2.454-2.491a4 4 0 0 0 .282-5.299L56.939 48.2l3.051-7.61 5-.438a4 4 0 0 0 3.65-3.986v-3.589a4 4 0 0 0-3.566-3.977l-5.083-.556z" fill="#30404D"/><g transform="translate(14 14)" stroke-width="2"><ellipse stroke="#30404D" cx="20.5" cy="19.5" rx="20" ry="19.5"/><path d="M19.992 39C31.038 39 40.5 30.27 40.5 19.5c0-9.7-7.675-17.745-17.27-19.248A20.917 20.917 0 0 0 19.992 0" stroke="#546670"/></g></g><g filter="url(#d)" transform="translate(34 31.5)"><g transform="translate(0 .016)"><mask id="f" fill="#fff"><use xlink:href="#e"/></mask><path d="M20.175 32.67c0-4.497 1.902-6.67 2.69-7.379.527-.473 1.047-.945 1.506-1.482 2.374-2.78 3.666-6.51 3.227-10.54C26.904 6.92 21.764 1.771 15.417 1.07 7.067.15 0 6.662 0 14.825c0 3.832 1.558 7.3 4.073 9.807 0 0 3.005 2.783 3.005 8.038" fill="#FCD116" mask="url(#f)"/></g><path fill="#E1E4E1" d="M4 39h19v-7H4z"/><path fill="#B5B5B5" d="M22 39v5.513L14 47l-8-2.487V39"/><path fill="#696969" d="M21.997 39v5.503L14 47v-8"/><path d="M4 38.054h9.052a1 1 0 0 0 1-1.01L14 32h9.133v7.052H4v-.998z" fill="#C5CCCD" fill-rule="nonzero"/></g><g transform="translate(48 32.5)"><mask id="h" fill="#fff"><use xlink:href="#g"/></mask><path d="M1.594.084c6.42.686 11.62 5.723 12.32 11.933.445 3.943-.863 7.594-3.263 10.313-.464.525-.99.989-1.522 1.45-.798.692-2.722 2.82-2.722 7.22H0V0c.526 0 1.057.026 1.594.084z" fill="#FDBD0F" mask="url(#h)"/></g><path d="M41 61.634h5.063a2 2 0 0 0 2-2V59.5H49v4h-8v-1.866z" fill="#FDBD0F" fill-rule="nonzero"/><g filter="url(#i)" transform="translate(44 40.5)" fill="#FFF"><path d="M8 0H1.867L0 9.097h2.963V17l4.77-10.371h-2.4z"/></g></g></g><rect x="2" y="2" width="96" height="96" rx="48" stroke="#0078D4" stroke-width="4"/></g></svg>
